X:71
T:Oxter my Lassie
Z:Jack Campin - http://www.campin.me.uk
S:Blaikie MS (NLS MS.1578) p21, Blaikie #65
M:2/4
L:1/16
V:1 midi program 1 74
V:2 midi program 1 46 bass middle = d transpose -24
Q:1/4=60
K:C
[V:1] G2|G3A`c2c2|c2A2`G2G2|A2c2 {e}d2cd|ecdB  c2cd|e2ec d2e2|
[V:2] z2|c4  c'4 |c4   c'4 |c4      g4  |c'2g2`e2g2|c4   c'4 |
%
[V:1] c2cA GAcd|eddc A2GE|DEG2 G4|c3A GAcd|edcA A2GE|D2EG A2|]
[V:2] c4   c2z2|c4   c'4 |G4   g4|c4  c'4 |c4   c'4 |f2e2 A2|]
W:Transcription (c) Jack Campin 2009, no mirroring or republication without permission

